Adwaita++-Dark/apps/16/pcloud.svg

<svg height="16" viewBox="0 0 16 16" width="16" xmlns="http://www.w3.org/2000/svg">
  <path d="m8 .5a7.5000002 7.5000002 0 0 0 -7.5 7.5 7.5000002 7.5000002 0 0 0 7.5 7.5 7.5000002 7.5000002 0 0 0 7.5-7.5 7.5000002 7.5000002 0 0 0 -7.5-7.5zm0 1.5c3.3085 0 6 2.6915 6 6s-2.6915 6-6 6-6-2.6915-6-6 2.6915-6 6-6zm0 1c-2.757 0-5 2.243-5 5s2.243 5 5 5 5-2.243 5-5-2.243-5-5-5zm-1.75 2h2.5c1.2405 0 2.25 1.0095 2.25 2.25s-1.0095 2.25-2.25 2.25h-1.75v1.25c0 .414-.3355.75-.75.75s-.75-.336-.75-.75v-5c0-.414.3355-.75.75-.75zm.75 1.5v1.5h1.75c.4135 0 .75-.3365.75-.75s-.3365-.75-.75-.75z" fill="#e6ddff"/>
</svg>

<svg xmlns="http://www.w3.org/2000/svg" id="Layer_1" width="16" height="16" x="0" y="0" version="1.1" viewBox="0 0 16 16" xml:space="preserve">
 <path fill="#E6DDFF" d="M 8,0.5 A 7.5000002,7.5000002 0 0 0 0.5,8 7.5000002,7.5000002 0 0 0 8,15.5 7.5000002,7.5000002 0 0 0 15.5,8 7.5000002,7.5000002 0 0 0 8,0.5 Z M 8,2 c 3.3085,0 6,2.6915 6,6 0,3.3085 -2.6915,6 -6,6 C 4.6915,14 2,11.3085 2,8 2,4.6915 4.6915,2 8,2 Z M 8,3 C 5.243,3 3,5.243 3,8 c 0,2.757 2.243,5 5,5 2.757,0 5,-2.243 5,-5 C 13,5.243 10.757,3 8,3 Z M 6.25,5 h 2.5 C 9.9905,5 11,6.0095 11,7.25 11,8.4905 9.9905,9.5 8.75,9.5 H 7 v 1.25 C 7,11.164 6.6645,11.5 6.25,11.5 5.8355,11.5 5.5,11.164 5.5,10.75 v -5 C 5.5,5.336 5.8355,5 6.25,5 Z M 7,6.5 V 8 H 8.75 C 9.1635,8 9.5,7.6635 9.5,7.25 9.5,6.8365 9.1635,6.5 8.75,6.5 Z"/>
</svg>
